X:1
T:ຢ່າເຊື່ອຜູ່ຊາຍ
T:ເນື້ອຮ້ອງ & ທຳນອງ : ຄຳຫລ້າ ໜໍ່ແກ້ວ ນັກຮ້ອງຕົ້ນສະບັບ : ນະຣຽມ
T:1970
T:© studiodavong
C:Khamla NOKEO
Z:© studiodavong
%%score ( 1 2 )
L:1/8
Q:1/4=118
M:4/4
K:B
V:1 treble nm="Piano" snm="Pno."
V:2 treble 
V:1
"^Cha Cha Cha"!mp! z4 z"_(Sax) _____________________________________________________________________________________________" B,CD || %1
w: |
S"B" .FFFD .FFFD | .F F3 z B,CD | .FFFD"B7" .FFFD |"E" .G G3 z DFD | %5
w: ||||
"_______________________________________________________________________________________________" (3.G2 G2 E2 (3.G2 G2 E2 | %6
w: |
"F#" .A A3 z EGE | (3.A2 A2 A2 (3.G2 G2 A2 |"B" .B2 !>!d/d/d/d/ !>!d B,CD ||"B""^A" F3 B G2 F2 | %10
w: ||* * * * * * ຢ່າ ເຊື່ອ ຜູ່|ຊາຍ ໜ້າ ໄຫວ້ ຫຼັງ|
"G#m" D4 z FGF | D3 B, C2 D2 |"F#" F4 z GBG |"B" B3 F"G#7" D G2 F/D/ |"C#m" C4 z BcB | %15
w: ຫຼອກ ຍາມ ຮັກ ກໍ|ບອກ ແຕ່ ຄວາມ ຫວານ|ໆ ຜູ່ ຊາຍ ຜູ່|ຊາຍ ນັ້ນ ແຫຼະ ຍອດ ທໍ ຣະ|ມານ ສຸດ ແສນ ລຳ|
"E" G3 B cBGB |"F#" F4 z B,CD ||"B""^B" F3{G} B G2 F2 |"G#m" D4 z FGF | D3 B, C2{F} G2 | %20
w: ຄານ ຈົນ ຄ້ານ ຈະ ພັນ ລະ|ນາ ຢ່າ ເຊື່ອ ຜູ່|ຊາຍ ເສັຽ ດາຍ ລີ້ນ|ລົມ ຈະ ຊໍ້າ ຈະ|ຕຣົມ ຈະ ເສັຽ ນໍ້າ|
"F#" F4 z GBG |"B" B3 F"G#7" DGFD |"C#m" C4 z{B} cGB |"F#" c3{B} c{B} F2 G2 |"B" B4"B7" z2 (B,C) || %25
w: ຕາ ຜູ່ ຊາຍ ຜູ່|ຊາຍ ລ້ວນ ແຕ່ ໃຊ້ ກົນ ມານ|ຍາ ແສນ ເບື່ອ ລະ|ອາ ໜັງ ໜ້າ ຜູ່|ຊາຍ ຕໍ່ _|
"E""^C" E3 B G2 (FG) | E4 z EFE |"F#" F3 B, (CF) D2 |"B"{D} F4 z dcB | (B"E" G2) B cBGB | %30
w: ໜ້າ ສັນ ຍາ ສາ _|ບານ ທັງ ໄຫວ້ ທັງ|ວານ ຢາກ ສົມ _ ໃຈ|ໝາຍ ສັນ ຍາ ຈະ|ລົ້ມ _ ຈົມ ຫາຍ ບໍ່ ທັນ ເທົ່າ|
"B" F4 z FGD |"G#7" F3{B} c G2 (Bc) |"C#m" c4"F#" z B,CD ||"B""^D" F3{G} B G2 F2 | %34
w: ໃດ ຍາມ ເຂົາ ຫ່າງ|ໄກ ຫາ ໃໝ່ ເຊີຍ _|ຊົມ ຢ່າ ເຊື່ອ ຜູ່|ຊາຍ ເຫັນ ຫຼາຍ ພາຍ|
"G#m"{F} D4 z FGF | D3 B, C2 D2 |"F#" F4 z GBG |"B" B3 F"G#7" DGFD |"C#m" C4 z BGB | %39
w: ມາກ ຄຳ ຫວານ ທີ່|ປາກ ຈະ ພາ ຂື່ນ|ຂົມ ຢ່າ ເຊື່ອ ຜູ່|ຊາຍ ເຂົາ ຫຼອກ ໃຫ້ ຊໍ້າ ພຽງ|ຊົມ ທັງ ເຈັບ ທັງ|
"F#" c3 B F2 (BG)!dacoda! ||"B" B4"_(Solo) ____" z B,CD!D.S.! ||O"B""^E" B4 z B,CD |"F#" F4 x FcG | %43
w: ຕຣົມ ລົມ ປາກ ຜູ່ _|ຊາຍ... * * *|ຊາຍ... ຢ່າ ເຊື່ອ ຜູ່|ຊາຍ ຢ່າ ເຊື່ອ ຜູ່|
"B" B4 x4!fine! |] %44
w: ຊາຍ|
V:2
 x8 || x8 | x8 | x8 | x8 | x8 | x8 | x8 | x8 || x8 | x8 | x8 | x8 | x8 | x8 | x8 | x8 || x8 | x8 | %19
 x8 | x8 | x8 | x8 | x8 | x8 || x8 | x8 | x8 | x8 | x8 | x8 | x8 | x8 || x8 | x8 | x8 | x8 | x8 | %38
 x8 | x8 || x8 || x8 | x2 !>![FAc][FAc] !>![FAc] x x2 | x2 !>![FBd][FBd] !>![FBd] z z2 |] %44

